Obsidian-SemiLight/actions/24s/office-chart-line-stacked.svg

<svg viewBox="0 0 24 24" xmlns="http://www.w3.org/2000/svg"><path d="m5 4v6 1 5 1 1h-1v1h1v1h1v-1h14v-1h-14v-1h.0078125.9921875 2v-.007812l.0078125.007812 1.9999995-2h1.591797l2 2h3.5 1.900391v-1h-1.900391-3.085937l-2-2h-.013672-.992188-.408203-1.005859l-2 2h-1.59375-.9921875-.0078125v-3-1-1h1 1 1.8730469.0019531l2-2 .828125-.828125 1.294922-1.2949219 2.123047 2.1230469.005859-.0039062.003906.0039062 2-2 .828125-.828125 1.041016-1.0410156-.707031-.7070313-1.041016 1.0410157-.828125.828125-1.296875 1.296875-2.126953-2.125-.001953.0019531-.001953-.0019531-1.527344 1.5273437h-6.46875v-.9921875-2zm1 3h6.460938l-.464844.4648438-.828125.828125-1.7070315 1.7070312h-1.4609375-1-1z" fill="#4d4d4d"/></svg>

<svg xmlns="http://www.w3.org/2000/svg" viewBox="0 0 24 24">
  <defs id="defs3051">
    <style type="text/css" id="current-color-scheme">
      .ColorScheme-Text {
        color:#4d4d4d;
      }
      </style>
  </defs>
 <path style="fill:currentColor;fill-opacity:1;stroke:none" 
     d="M 5 4 L 5 10 L 5 11 L 5 16 L 5 17 L 5 18 L 4 18 L 4 19 L 5 19 L 5 20 L 6 20 L 6 19 L 20 19 L 20 18 L 6 18 L 6 17 L 6.0078125 17 L 7 17 L 9 17 L 9 16.992188 L 9.0078125 17 L 11.007812 15 L 12.599609 15 L 14.599609 17 L 18.099609 17 L 20 17 L 20 16 L 18.099609 16 L 15.013672 16 L 13.013672 14 L 13 14 L 12.007812 14 L 11.599609 14 L 10.59375 14 L 8.59375 16 L 7 16 L 6.0078125 16 L 6 16 L 6 13 L 6 12 L 6 11 L 7 11 L 8 11 L 9.8730469 11 L 9.875 11 L 11.875 9 L 12.703125 8.171875 L 13.998047 6.8769531 L 16.121094 9 L 16.126953 8.9960938 L 16.130859 9 L 18.130859 7 L 18.958984 6.171875 L 20 5.1308594 L 19.292969 4.4238281 L 18.251953 5.4648438 L 17.423828 6.2929688 L 16.126953 7.5898438 L 14 5.4648438 L 13.998047 5.4667969 L 13.996094 5.4648438 L 12.46875 6.9921875 L 6 6.9921875 L 6 6 L 6 4 L 5 4 z M 6 7 L 12.460938 7 L 11.996094 7.4648438 L 11.167969 8.2929688 L 9.4609375 10 L 8 10 L 7 10 L 6 10 L 6 7 z "
     class="ColorScheme-Text"
     />
</svg>
